interface/resources/images/tivoli-logo.svg

<svg viewBox="0 0 128 128" xmlns="http://www.w3.org/2000/svg"><circle cx="64" cy="64" fill="#e91e63" r="64"/><path d="M59.981 25.063c3.044-4.522 8.143-7.759 14.23-7.951.27-.006.54-.008.81-.007 10.838.145 20.624 10.816 16.878 22.734v71.045H64.836c-12.085 0-22.537.673-29.029-8.074-3.34-4.501-4.677-10.322-4.806-15.823V68.403h-7.715V38.052h7.715V25.063h28.98z" fill="#fff"/><path d="M55.112 48.051h9.034v10.352h-9.034V84.77c0 1.953.375 3.353 1.123 4.199.749.847 2.181 1.27 4.297 1.27 1.563 0 2.946-.114 4.151-.342v10.693a29.033 29.033 0 01-8.545 1.27c-9.896 0-14.942-4.997-15.137-14.99V58.403h-7.715V48.051h7.715V35.063h14.111v12.988zM81.9 100.883H67.739V48.051H81.9v52.832zM66.909 34.38c0-2.116.708-3.858 2.124-5.225 1.416-1.367 3.345-2.051 5.786-2.051 2.409 0 4.33.684 5.762 2.051 1.432 1.367 2.149 3.109 2.149 5.225 0 2.148-.725 3.906-2.173 5.273-1.449 1.367-3.361 2.051-5.738 2.051-2.376 0-4.288-.684-5.737-2.051-1.448-1.367-2.173-3.125-2.173-5.273z"/></svg>

<svg viewBox="0 0 128 128" xmlns="http://www.w3.org/2000/svg"><circle fill="#e91e63" r="64" cx="64" cy="64"/><path fill="#fff" d="M59.981 25.063C63.025 20.541 68.124 17.304 74.211 17.112 74.481 17.106 74.751 17.104 75.021 17.105 85.859 17.25 95.645 27.921 91.899 39.839V110.884H64.836C52.751 110.884 42.299 111.557 35.807 102.81 32.467 98.309 31.13 92.488 31.001 86.987V68.403H23.286V38.052H31.001V25.063H59.981z"/><path d="M55.112 48.051H64.146V58.403H55.112V84.77C55.112 86.723 55.487 88.123 56.235 88.969 56.984 89.816 58.416 90.239 60.532 90.239 62.095 90.239 63.478 90.125 64.683 89.897V100.59A29.033 29.033 0 0156.138 101.86C46.242 101.86 41.196 96.863 41.001 86.87V58.403H33.286V48.051H41.001V35.063H55.112V48.051zM81.9 100.883H67.739V48.051H81.9V100.883zM66.909 34.38C66.909 32.264 67.617 30.522 69.033 29.155 70.449 27.788 72.378 27.104 74.819 27.104 77.228 27.104 79.149 27.788 80.581 29.155 82.013 30.522 82.73 32.264 82.73 34.38 82.73 36.528 82.005 38.286 80.557 39.653 79.108 41.02 77.196 41.704 74.819 41.704 72.443 41.704 70.531 41.02 69.082 39.653 67.634 38.286 66.909 36.528 66.909 34.38z"/></svg>
